icons/ShoppingBasket_filled.svg

<svg width="24" height="24" viewBox="0 0 24 24" fill="none" xmlns="http://www.w3.org/2000/svg">
<path fill-rule="evenodd" clip-rule="evenodd" d="M14.3799,2.91384c0.5994,-0.34248 1.363,-0.13419 1.7054,0.46523l3.6401,6.37092h0.7746h1.5c0.6904,0 1.25,0.55961 1.25,1.25001c0,0.6903 -0.5596,1.25 -1.25,1.25h-0.3812l-0.6788,6.1089c-0.1828,1.6459 -1.5741,2.8911 -3.2301,2.8911h-11.41981c-1.65604,0 -3.04725,-1.2452 -3.23013,-2.8911l-0.67876,-6.1089h-0.3812c-0.69036,0 -1.25,-0.5597 -1.25,-1.25c0,-0.6904 0.55964,-1.25001 1.25,-1.25001h1.5h0.77442l3.64028,-6.37049c0.34251,-0.5994 1.10608,-0.80765 1.70548,-0.46513c0.59942,0.34251 0.80762,1.10608 0.46512,1.70547l-2.9315,5.13015h9.6923l-2.9314,-5.13071c-0.3425,-0.59941 -0.1342,-1.36297 0.4652,-1.70544zM19.0319,12.25c-0.0205,0.0005 -0.041,0.0005 -0.0615,0h-2.8516l-0.2222,2h2.9846l0.2222,-2zM8.10342,14.25l-0.22223,-2h-2.98461l0.22223,2zM8.3812,16.75h-2.98461l0.14808,1.3328c0.04221,0.3798 0.36325,0.6672 0.74542,0.6672h2.31333zM12.8812,18.75l0.2222,-2h-2.2068l0.2222,2zM13.3812,14.25l0.2222,-2h-3.2068l0.2222,2zM15.6188,16.75l-0.2222,2h2.3133c0.3822,0 0.7032,-0.2874 0.7454,-0.6672l0.1481,-1.3328z" fill="#002B51"/>
</svg>

<svg width="24" height="24" viewBox="0 0 24 24" fill="none" xmlns="http://www.w3.org/2000/svg">
<path fill-rule="evenodd" clip-rule="evenodd" d="M14.3799 2.91384C14.9793 2.57136 15.7429 2.77965 16.0853 3.37907L19.7254 9.74999H20.5H22C22.6904 9.74999 23.25 10.3096 23.25 11C23.25 11.6903 22.6904 12.25 22 12.25H21.6188L20.94 18.3589C20.7572 20.0048 19.3659 21.25 17.7099 21.25H6.29009C4.63405 21.25 3.24284 20.0048 3.05996 18.3589L2.3812 12.25H2C1.30964 12.25 0.75 11.6903 0.75 11C0.75 10.3096 1.30964 9.74999 2 9.74999H3.5H4.27442L7.9147 3.3795C8.25721 2.7801 9.02078 2.57185 9.62018 2.91437C10.2196 3.25688 10.4278 4.02045 10.0853 4.61984L7.1538 9.74999H16.8461L13.9147 4.61928C13.5722 4.01987 13.7805 3.25631 14.3799 2.91384ZM19.0319 12.25C19.0114 12.2505 18.9909 12.2505 18.9704 12.25H16.1188L15.8966 14.25H18.8812L19.1034 12.25H19.0319ZM5.11881 14.25L4.89658 12.25H7.88119L8.10342 14.25H5.11881ZM8.3812 16.75H5.39659L5.54467 18.0828C5.58688 18.4626 5.90792 18.75 6.29009 18.75H8.60342L8.3812 16.75ZM11.1188 18.75L10.8966 16.75H13.1034L12.8812 18.75H11.1188ZM10.6188 14.25L10.3966 12.25H13.6034L13.3812 14.25H10.6188ZM15.6188 16.75L15.3966 18.75H17.7099C18.0921 18.75 18.4131 18.4626 18.4553 18.0828L18.6034 16.75H15.6188Z" fill="#002B51"/>
</svg>
